X: 14699
T: Gan Ainm
R: jig
M: 6/8
K: Gmajor
Bc|ded cBA|B2 G GFG|c2 A AGA|e2 d dBc|
ded cBA|B2 G GFG|A2 A d2 B|G2 B G2||
g|fga agf|g2 d B2 e|dcA cBG|FGA A2 g|
fga agf|g2 d B2 b|bag gge|edd cBc||

